X: 32
T: Eagle Chief's War Song
N: Derived from pawnee32.krn
O: Oklahoma, U.S.A.
N: from Pawnee Music by Frances Densmore, 1926
Z: transcribed to **kern format by David Huron, August 2000
C: Skidi and Chaui Bands, 1919
L: 1/8
M: 2/4
Q: 1/4=88
K: G clef=bass
%%linebreak <none>
G/ [I:setbarnb 1]| 
G> G G3/ E/ | 
D> C C3/ E/ | 
D> E D3/ B,/ | 
G,> G, G,3/ D/ | 
B,> D G,3/ B,/ | 
G,> G, G,3/ B,/ | 
G,> G, G, G, | 
G, G, G, G, | 
G,2-G,3/ :|]  



